src/assets/img/icons/duotone-icons/General/Thunder-move.svg

<?xml version="1.0" encoding="UTF-8"?>
<svg width="24px" height="24px" viewBox="0 0 24 24" version="1.1" xmlns="http://www.w3.org/2000/svg" xmlns:xlink="http://www.w3.org/1999/xlink">
    <!-- Generator: Sketch 52.2 (67145) - http://www.bohemiancoding.com/sketch -->
    <title>Stockholm-icons / General / Thunder-move</title>
    <desc>Created with Sketch.</desc>
    <g id="Stockholm-icons-/-General-/-Thunder-move" stroke="none" stroke-width="1" fill="none" fill-rule="evenodd">
        <rect id="Rectangle-10" x="0" y="0" width="24" height="24"></rect>
        <path d="M16.3740377,19.9389434 L22.2226499,11.1660251 C22.4524142,10.8213786 22.3592838,10.3557266 22.0146373,10.1259623 C21.8914367,10.0438285 21.7466809,10 21.5986122,10 L17,10 L17,4.47708173 C17,4.06286817 16.6642136,3.72708173 16.25,3.72708173 C15.9992351,3.72708173 15.7650616,3.85240758 15.6259623,4.06105658 L9.7773501,12.8339749 C9.54758575,13.1786214 9.64071616,13.6442734 9.98536267,13.8740377 C10.1085633,13.9561715 10.2533191,14 10.4013878,14 L15,14 L15,19.5229183 C15,19.9371318 15.3357864,20.2729183 15.75,20.2729183 C16.0007649,20.2729183 16.2349384,20.1475924 16.3740377,19.9389434 Z" id="Path-3" fill="#335EEA"></path>
        <path d="M4.5,5 L9.5,5 C10.3284271,5 11,5.67157288 11,6.5 C11,7.32842712 10.3284271,8 9.5,8 L4.5,8 C3.67157288,8 3,7.32842712 3,6.5 C3,5.67157288 3.67157288,5 4.5,5 Z M4.5,17 L9.5,17 C10.3284271,17 11,17.6715729 11,18.5 C11,19.3284271 10.3284271,20 9.5,20 L4.5,20 C3.67157288,20 3,19.3284271 3,18.5 C3,17.6715729 3.67157288,17 4.5,17 Z M2.5,11 L6.5,11 C7.32842712,11 8,11.6715729 8,12.5 C8,13.3284271 7.32842712,14 6.5,14 L2.5,14 C1.67157288,14 1,13.3284271 1,12.5 C1,11.6715729 1.67157288,11 2.5,11 Z" id="Combined-Shape" fill="#335EEA" opacity="0.3"></path>
    </g>
</svg>

<svg width="24" height="24" viewBox="0 0 24 24" xmlns="http://www.w3.org/2000/svg"><g fill="none" fill-rule="evenodd"><path d="M0 0h24v24H0z"/><path d="M16.374 19.939l5.849-8.773A.75.75 0 0021.599 10H17V4.477a.75.75 0 00-1.374-.416l-5.849 8.773A.75.75 0 0010.401 14H15v5.523a.75.75 0 001.374.416z" fill="#335EEA"/><path d="M4.5 5h5a1.5 1.5 0 010 3h-5a1.5 1.5 0 010-3zm0 12h5a1.5 1.5 0 010 3h-5a1.5 1.5 0 010-3zm-2-6h4a1.5 1.5 0 010 3h-4a1.5 1.5 0 010-3z" fill="#335EEA" opacity=".3"/></g></svg>
